X:1
T:Title
%%score { ( 1 3 ) | ( 2 4 ) }
L:1/8
M:4/4
K:Ab
V:1 treble nm="Grand Piano"
V:3 treble 
V:2 bass 
V:4 bass 
V:1
 z4 z2[Q:1/4=100] [A,C]>[B,D] | [CE]2 [CE]>[DF] [CE]2 [Ec]2 | %2
 [Cc]>[CA] [CA]>[CF] [CE]2 [CE]>[CEA] | G2 G>F E2 B>B | [CA]6 [A,C]>[B,D] | %5
 [CE]2 [CE]>[DF] [CE]2 c2 | A>G [EA]>B c2 [Ec]>[Ec] | [EB]2 [EG]>[FA] [EG]2 [=DF]>[DF] | %8
[M:3/4] E6 |[M:1/4] E>E |[M:4/4] e6 z2 | B6 z2 | d6 z2 | c6 z2 | e2 e>f e2 [Ec]2 | %15
 B>A B>c [FA]>[FA] G>F | E2 c>d c2 B>B |[M:3/4] [CA]6 |] %18
V:2
 z4 z2 [A,,E,]>[A,,E,] | [A,,A,]2 [A,,A,]>[A,,A,] [A,,A,]2 [E,A,]2 | %2
 [A,,A,]>[A,,E,] [A,,E,]>[A,,A,] [A,,A,]2 [A,,A,]>A,, | %3
 [E,B,D]2 [E,B,D]>[E,A,D] [E,G,D]2 [E,G,D]>[E,G,D] | [A,,A,]6 [A,,E,]>[A,,E,] | %5
 [A,,A,]2 [A,,A,]>[A,,A,] [A,,A,]2 [A,E]2 | [A,CE]>[E,B,E] [C,A,]>[E,G,E] [A,E]2 [A,,A,]>[A,,A,] | %7
 [B,,G,]2 [B,,B,]>[B,,B,] [B,,B,]2 [B,,A,]>[B,,A,] |[M:3/4] E,2- [E,-B,]>[E,-A,] [E,G,]2 | %9
[M:1/4] E,>E, |[M:4/4] [E,CE]2 [E,C]>[E,C] [E,C]2 [E,B,E]>[E,A,E] | %11
 [E,G,E]2 [=D,A,]>[D,A,] [E,G,]2[K:treble] [B,DE]>[A,DE] | %12
 [G,B,E]2 [B,E]>[B,E] [B,E]2 [CE]>[B,EG] | [EA]2 E>E E2 [A,EA]>[A,B,A] | %14
 [A,CA]2 [A,CA]>[A,DA] [A,CA]2[K:bass] [A,,A,]2 | %15
 [A,D]>[A,C] [A,D]>[A,E] [D,D]>[D,D] [=D,A,_C]>[D,A,C] | %16
 [E,A,C]2 [E,A,E]>[E,B,E] [E,A,E]2 [E,G,D]>[E,G,D] |[M:3/4] [A,,A,]6 |] %18
V:3
 x8 | x8 | x8 | x8 | x8 | x8 | x8 | x8 |[M:3/4] z2 D>C B,2 |[M:1/4] x2 |[M:4/4] z2 E>E E2 G>A | %11
 z2 F>F E2 G>F | z2 G>G G2 A>B | z2 A>A A2 c>d | x8 | x8 | x8 |[M:3/4] x6 |] %18
V:4
 x8 | x8 | x8 | x8 | x8 | x8 | x8 | x8 |[M:3/4] G,2 z2 z2 |[M:1/4] x2 |[M:4/4] x8 | %11
 x6[K:treble] x2 | x8 | A,6 z2 | x6[K:bass] x2 | x8 | x8 |[M:3/4] x6 |] %18

